app/dist/common/images/china-coal-energy-co-ltd.svg

<svg height="18" viewBox="0 0 18 18" width="18" xmlns="http://www.w3.org/2000/svg"><path d="m0 0h18v18h-18z" fill="#f0f3fa"/><path d="m7.68 5c-.15 0-.27.09-.27.2l-.05.8h-1.33a3.01 3.01 0 0 0 -3.03 3c0 1.66 1.36 3 3.03 3h1.01l-.04.8c0 .11.1.2.25.2h3.5c.14 0 .26-.09.25-.2l-.04-.8h1.03c1.5 0 2.77-1.08 3.01-2.5h-3.1c-.17.45-.55.8-1.02.92l-.05-.92h-.83v.97h-2v-2.99h2v1.02h.78l-.05-1a1.5 1.5 0 0 1 1.19 1h3.08a3.05 3.05 0 0 0 -3.01-2.5h-1.34l-.04-.8c0-.11-.13-.2-.28-.2zm-.4 2.5a1.5 1.5 0 0 0 -1.28 1.48c0 .7.48 1.28 1.13 1.44z" fill="#447fc1" fill-rule="evenodd"/></svg>

<!-- by TradingView --><svg width="18" height="18" viewBox="0 0 18 18" xmlns="http://www.w3.org/2000/svg"><path fill="#F0F3FA" d="M0 0h18v18H0z"/><path fill-rule="evenodd" d="M7.68 5c-.15 0-.27.09-.27.2l-.05.8H6.03A3.01 3.01 0 0 0 3 9c0 1.66 1.36 3 3.03 3h1.01l-.04.8c0 .11.1.2.25.2h3.5c.14 0 .26-.09.25-.2l-.04-.8h1.03c1.5 0 2.77-1.08 3.01-2.5h-3.1c-.17.45-.55.8-1.02.92l-.05-.92H10v.97H8V7.48h2V8.5h.78l-.05-1a1.5 1.5 0 0 1 1.19 1H15A3.05 3.05 0 0 0 11.99 6h-1.34l-.04-.8c0-.11-.13-.2-.28-.2H7.68Zm-.4 2.5A1.5 1.5 0 0 0 6 8.98c0 .7.48 1.28 1.13 1.44l.15-2.92Z" fill="#447FC1"/></svg>
